icons/arrow-loop-left.svg

<svg width="24" height="24" viewBox="0 0 24 24" fill="none" xmlns="http://www.w3.org/2000/svg">
<path fill-rule="evenodd" clip-rule="evenodd" d="M20.45 10.75C20.45 10.0728 19.8112 9.20831 18.1998 8.46927C16.6558 7.76108 14.4669 7.30005 12 7.30005C9.53304 7.30005 7.34423 7.76108 5.80016 8.46927C4.18879 9.20831 3.54999 10.0728 3.54999 10.75C3.54999 11.293 3.91715 11.8934 4.71601 12.426C5.06066 12.6558 5.15379 13.1214 4.92403 13.4661C4.69426 13.8107 4.22861 13.9039 3.88396 13.6741C2.88283 13.0067 2.04999 12.0071 2.04999 10.75C2.04999 9.12728 3.46118 7.89179 5.17482 7.10583C6.95575 6.28901 9.36693 5.80005 12 5.80005C14.633 5.80005 17.0442 6.28901 18.8252 7.10583C20.5388 7.89179 21.95 9.12728 21.95 10.75C21.95 11.6395 21.4208 12.3851 20.7494 12.9614C20.0673 13.5468 19.1365 14.0498 18.0858 14.461C16.4593 15.0974 14.4528 15.5494 12.4092 15.7223L13.7824 16.8758C14.0995 17.1422 14.1407 17.6153 13.8742 17.9324C13.6078 18.2496 13.1347 18.2907 12.8176 18.0243L10.3176 15.9243L10.2926 15.9034L10.2696 15.8804C10.1559 15.7666 10.0708 15.6423 10.01 15.5131C9.90976 15.3856 9.84999 15.2248 9.84999 15.05C9.84999 14.9634 9.86469 14.8802 9.89173 14.8027C9.90912 14.623 9.95905 14.4548 10.0291 14.3146L10.0687 14.2354L10.1257 14.1676L12.2257 11.6676C12.4921 11.3505 12.9652 11.3093 13.2824 11.5758C13.5995 11.8422 13.6407 12.3153 13.3742 12.6324L12.0168 14.2485C14.0172 14.1051 15.9869 13.6715 17.5392 13.0641C18.501 12.6878 19.2639 12.2596 19.7725 11.8231C20.2916 11.3775 20.45 11.0106 20.45 10.75Z" fill="black"/>
</svg>

<svg xmlns="http://www.w3.org/2000/svg" fill="none" viewBox="0 0 24 24">
  <path fill="#000" fill-rule="evenodd" d="M20.45 10.75c0-.677-.639-1.542-2.25-2.28-1.544-.71-3.733-1.17-6.2-1.17s-4.656.461-6.2 1.17c-1.611.738-2.25 1.603-2.25 2.28 0 .543.367 1.143 1.166 1.676a.75.75 0 0 1-.832 1.248c-1.001-.667-1.834-1.667-1.834-2.924 0-1.623 1.411-2.858 3.125-3.644C6.955 6.289 9.367 5.8 12 5.8s5.044.489 6.825 1.306c1.714.786 3.125 2.021 3.125 3.644 0 .89-.53 1.635-1.2 2.211-.683.586-1.613 1.089-2.664 1.5-1.627.636-3.633 1.088-5.677 1.261l1.373 1.154a.75.75 0 1 1-.964 1.148l-2.5-2.1-.025-.02-.023-.024a1.303 1.303 0 0 1-.26-.367.747.747 0 0 1-.118-.71c.017-.18.067-.348.137-.488l.04-.08.057-.067 2.1-2.5a.75.75 0 0 1 1.148.964l-1.357 1.617c2-.144 3.97-.578 5.522-1.185.962-.376 1.725-.804 2.233-1.24.52-.447.678-.813.678-1.074Z" clip-rule="evenodd"/>
</svg>
